public/svg/inboxzero/camera.svg

<svg xmlns="http://www.w3.org/2000/svg" viewBox="0 0 128 128"><path d="M0 107.2c0 3.4 2.7 6.2 6.1 6.2H122c3.3 0 6.1-2.7 6.1-6.1v-.1H0zm121.9-85.4H6.1c-3.3 0-6.1 2.7-6.1 6.1v75.3h128V27.9c0-3.4-2.7-6.1-6.1-6.1zM20.4 42.2c-3.3 0-5.9-2.6-5.9-5.9 0-3.3 2.6-5.9 5.9-5.9 3.3 0 5.9 2.6 5.9 5.9 0 3.3-2.6 5.9-5.9 5.9zM64 98.8c-17.3 0-31.3-14-31.3-31.3s14-31.3 31.3-31.3 31.2 14 31.2 31.3c.1 17.3-13.9 31.3-31.2 31.3zm52.4-58.7c0 2.2-1.8 4-4 4H97.8c-2.2 0-4-1.8-4-4V35c0-2.2 1.8-4 4-4h14.5c2.2 0 4 1.8 4 4v5.1zm4.5-21.1v.7H93.8V19c0-2.4 2-4.4 4.4-4.4h18.4c2.4.1 4.3 2 4.3 4.4zM64 94.9c-15.1 0-27.3-12.3-27.3-27.3C36.7 52.5 49 40.3 64 40.3s27.3 12.3 27.3 27.3S79.1 94.9 64 94.9zm0-52.6c-13.9 0-25.3 11.3-25.3 25.3C38.7 81.5 50 92.9 64 92.9s25.3-11.3 25.3-25.3S77.9 42.3 64 42.3zM42.9 67.6c0-11.7 9.5-21.1 21.1-21.1S85.1 56 85.1 67.6 75.7 88.7 64 88.7s-21.1-9.5-21.1-21.1z"></path></svg>

<?xml version="1.0" encoding="utf-8"?>
<!-- Generator: Adobe Illustrator 19.0.1, SVG Export Plug-In . SVG Version: 6.00 Build 0)  -->
<svg version="1.1" id="Party" xmlns="http://www.w3.org/2000/svg" xmlns:xlink="http://www.w3.org/1999/xlink" x="0px" y="0px"
	 viewBox="0 0 128 128" style="enable-background:new 0 0 128 128;" xml:space="preserve">
<style type="text/css">
	.st0{display:none;fill:#141414;}
	.st1{fill:#141414;}
	.st2{display:none;}
	.st3{display:inline;fill:#141414;}
</style>
<g id="row3">
	<path id="icon:5_2_" class="st0" d="M109.3,46.5c-1.7-6.3-5.2-11.7-10.1-15.5c-0.6-4.8-3.3-9-7.1-11.5c1.5-2.7,4-5.6,7.9-7.3
		L98.6,9c-4.8,2.1-7.7,5.6-9.5,8.8c-1.9-0.8-4-1.2-6.2-1.2c-6.7,0-12.5,4-15,9.8C62.3,21.6,55.4,19,48.1,19
		c-15.7,0-28.7,11.9-30.5,27.5C7.7,47.5,0,55.7,0,65.8c0,10.7,8.7,19.4,19.4,19.4c0.5,0,1,0,1.6-0.1L32,119h63.9l11.2-33.9
		c0.5,0,1,0.1,1.5,0.1c10.7,0,19.4-8.7,19.4-19.4C128,55.4,119.7,46.8,109.3,46.5z M87,19.6c0.4,0,0.8,0,1.2,0.1
		c-1.3,2.9-1.7,5.2-1.8,5.4l3.3,0.5c0-0.1,0.3-1.9,1.4-4.3c1.1,1.1,1.7,2.5,1.7,4.1c0,3.2-2.6,5.8-5.8,5.8c-3.2,0-5.8-2.6-5.8-5.8
		C81.2,22.2,83.8,19.6,87,19.6z M42.7,111.8h-5.3l-9.7-27.2H33L42.7,111.8L42.7,111.8z M52.5,111.8L50,84.6h5.1l2.4,27.2H52.5z
		 M74.9,111.8h-5.1l2.4-27.2h5.1L74.9,111.8z M90,111.8h-5.3l-0.1,0l9.7-27.2h5.4L90,111.8z M108.8,80.1h-0.2
		c-4.3,0-8.3-1.9-11.1-5.2l-1.4-1.8l-1.9,1.3c-4,2.6-8.6,4-13.5,4c-5.9,0-11.5-2.1-15.9-5.9l-1.4-1.2l-1.6,1
		c-4.1,2.7-8.9,4.1-13.7,4.1c-4.7,0-9.2-1.3-13.2-3.7l-2.1-1.3l-1.3,2.1c-2.6,4.2-7.1,6.7-12.1,6.7h-0.1c-7.9,0-14.2-6.4-14.2-14.3
		c0-8,6.7-14.5,14.8-14.3l2.5,0.1l0.1-2.5c0.6-14,11.8-25.1,25.6-25.1c6.9,0,13.4,2.8,18.3,7.8l0.2,0.2c0,0.3,0,0.6,0,0.9
		c0,9.1,7.3,16.4,16.4,16.4c7.5,0,13.9-5.1,15.8-12c3.1,3.3,5.2,7.5,6.1,12.1l0.4,2.3l2.3-0.2c0.4,0,0.8-0.1,1.2-0.1
		c7.9,0,14.3,6.4,14.3,14.3C122.9,73.7,116.6,80,108.8,80.1z"/>
	<path id="icon:4_2_" class="st0" d="M128,44.6C124.9,43,89.5,19.7,66.3,4.4l-1.7-1.1L0.4,44.4l0.4,0.6L0,44.6v80.2h128L128,44.6
		C128,44.6,128,44.6,128,44.6z M100.3,62.7L69.1,83.1C74,78.4,80.8,70.4,78.9,64c-2.1-7.2-10.4-5.2-14.5-2.5
		c-4.1-2.8-12-5.1-14.5,2.5c-2.1,6.3,4.7,14.3,9.6,19.1L27.7,62.5V46.7h72.6V62.7z M104.5,60V42.5H23.5v17.3L5.8,48.3l58.8-37.6
		c36.5,24.2,51.2,33.9,57.6,37.7L104.5,60z"/>
	<path id="icon:3_2_" class="st0" d="M61.7,3.4l-7-3.4l3.7,6.9c0.1,0.1,5.7,10.9,2.5,23c-1,4-6.1,6.6-10.5,8.9
		c-2.6,1.4-5,2.7-6.7,4.2c-13.7,11.6-7,20.5-7,20.5v15.2c0,2.6,2.1,4.7,4.7,4.7h1.6l4.2,44.6h33.6L85,83.4h2c2.6,0,4.7-2.1,4.7-4.7
		V63.5l0.4-2.1C98.8,22,62.1,3.6,61.7,3.4z M47.1,46.7c1.3-1.1,3.4-2.2,5.7-3.4c5.1-2.7,11.4-6,13-12.1c2-7.6,1-14.6-0.3-19.5
		c9.1,6.5,25.1,21.6,22.2,46.8H40.4C40.4,56.1,41.4,51.8,47.1,46.7z"/>
	<path id="icon:2_2_" class="st0" d="M34.5,25.5c-4.9,0-8.9,4-8.9,8.9s4,8.9,8.9,8.9c4.9,0,8.9-4,8.9-8.9S39.4,25.5,34.5,25.5z
		 M128,38.2c0,1.2-0.7,2.3-1.7,2.9L106,52.9v46.8c0,1.5-1.2,2.8-2.8,2.8h-2.7c-1.5,0-2.8-1.2-2.8-2.8V79.4c0-1.4-1.2-2.6-2.6-2.6
		c-1.4,0-2.6,1.2-2.6,2.6v20.3c0,1.5-1.2,2.8-2.8,2.8h-2.6c-1.5,0-2.8-1.2-2.8-2.8V53.1L63.3,42.5L45.3,52.9v46.8
		c0,1.5-1.2,2.8-2.8,2.8h-2.7c-1.5,0-2.8-1.2-2.8-2.8V79.4c0-1.4-1.2-2.6-2.6-2.6c-1.4,0-2.6,1.2-2.6,2.6v20.3
		c0,1.5-1.2,2.8-2.8,2.8h-2.7c-1.5,0-2.8-1.2-2.8-2.8V53.1L2.1,42.2c-1.3-0.6-2.1-2-2.1-3.4c0-2.7,2.8-4.6,5.3-3.5l29.2,12.3
		L62.6,35c0.4-0.2,0.9-0.3,1.3-0.3c0.5,0,1.1,0.1,1.6,0.4c0,0,0,0,0,0c0.2,0,0.4,0.1,0.5,0.2l29.2,12.3L123.3,35
		c0.4-0.2,0.9-0.3,1.3-0.3C126.4,34.8,128,36.2,128,38.2z M95.2,25.5c-4.9,0-8.9,4-8.9,8.9s4,8.9,8.9,8.9c4.9,0,8.9-4,8.9-8.9
		S100.1,25.5,95.2,25.5z"/>
	<path id="icon:1_2_" class="st0" d="M102.4,0v15.2c0,3.1-2.6,5.7-5.7,5.7c-3.1,0-5.7-2.6-5.7-5.7V0H36.8v15.2
		c0,3.1-2.6,5.7-5.7,5.7c-3.1,0-5.7-2.6-5.7-5.7V0H4v128h120V0H102.4z M116.4,120.4H11.6V30.7h104.9V120.4z M63.6,64H45.7V46.1h17.9
		V64z M86.3,46.1H68.4V64h17.9V46.1z M109.1,46.1H91.2V64h17.9V46.1z M63.6,86.7H45.7V68.8h17.9V86.7z M40.8,86.7H22.9V68.8h17.9
		V86.7z M86.3,68.8H68.4v17.9h17.9V68.8z M109.1,68.8H91.2v17.9h17.9V68.8z M40.8,109.5H22.9V91.6h17.9V109.5z M63.6,91.6H45.7v17.9
		h17.9V91.6z M86.3,91.6H68.4v17.9h17.9V91.6z"/>
</g>
<g id="row2">
	<path id="icon:5_4_" class="st1" d="M0,107.2L0,107.2c0,3.4,2.7,6.2,6.1,6.2h115.9c3.3,0,6.1-2.7,6.1-6.1v-0.1H0z M121.9,21.8H6.1
		c-3.3,0-6.1,2.7-6.1,6.1v75.3h128V27.9C128,24.5,125.3,21.8,121.9,21.8z M20.4,42.2c-3.3,0-5.9-2.6-5.9-5.9c0-3.3,2.6-5.9,5.9-5.9
		c3.3,0,5.9,2.6,5.9,5.9C26.3,39.6,23.7,42.2,20.4,42.2z M64,98.8c-17.3,0-31.3-14-31.3-31.3c0-17.3,14-31.3,31.3-31.3
		c17.3,0,31.2,14,31.2,31.3C95.3,84.8,81.3,98.8,64,98.8z M116.4,40.1c0,2.2-1.8,4-4,4H97.8c-2.2,0-4-1.8-4-4V35c0-2.2,1.8-4,4-4
		h14.5c2.2,0,4,1.8,4,4V40.1z M120.9,19v0.7H93.8V19c0-2.4,2-4.4,4.4-4.4h18.4C119,14.7,120.9,16.6,120.9,19z M64,94.9
		c-15.1,0-27.3-12.3-27.3-27.3c0-15.1,12.3-27.3,27.3-27.3s27.3,12.3,27.3,27.3C91.3,82.6,79.1,94.9,64,94.9z M64,42.3
		c-13.9,0-25.3,11.3-25.3,25.3c0,13.9,11.3,25.3,25.3,25.3s25.3-11.3,25.3-25.3C89.3,53.6,77.9,42.3,64,42.3z M42.9,67.6
		c0-11.7,9.5-21.1,21.1-21.1s21.1,9.5,21.1,21.1S75.7,88.7,64,88.7S42.9,79.2,42.9,67.6z"/>
	<path id="icon:4_4_" class="st0" d="M109.7,1.5l-0.6-0.4c-3.1-2.1-7.3-1.2-9.4,1.8l0,0.1c-0.1-0.2-0.3-0.3-0.5-0.5
		c-0.9-0.6-2.3-0.4-2.9,0.6l-0.7,1c-0.6,1-0.4,2.3,0.6,2.9c0.2,0.1,0.4,0.2,0.6,0.3l-2.1,3.1c-0.1-0.2-0.3-0.3-0.5-0.5
		c-1-0.6-2.3-0.4-2.9,0.6l-0.7,1.1c-0.6,1-0.4,2.3,0.6,2.9c0.2,0.1,0.4,0.2,0.6,0.3l-2.6,3.8c-1.2,1.7-1.4,3.8-0.9,5.7L65.8,57.9
		c-5.5-2.5-14.6-4.9-18.9,4.4C40.6,76,40.5,77.8,30.2,81.7C19.9,85.6,11,98.3,17.5,111.3c3,6,9.1,9.7,10.8,10.7l0,0
		c1.5,1.2,7.2,5.4,13.9,5.9C56.7,129,65.2,116,64.9,105c-0.3-11,1.3-11.7,11.7-22.8c6.8-7.3,1.7-14.6-2.7-18.8l22.7-33.8
		c0-0.1,0.1-0.1,0.1-0.2c1.7-0.3,3.2-1.3,4.2-2.8l2.5-3.8c0.9,0.5,2.1,0.2,2.7-0.7l0.7-1c0.6-0.9,0.4-2.1-0.4-2.8l2-2.9
		c0.9,0.5,2.1,0.2,2.7-0.7l0.7-1.1c0.6-0.9,0.4-2.1-0.4-2.8C113.6,7.8,112.8,3.6,109.7,1.5z M101.3,9.9l1,0.6L61.5,71l-1.3-0.5
		 M63.1,72.1L54.4,85c-0.3-0.1-0.6-0.3-0.9-0.5c-0.3-0.2-0.5-0.4-0.8-0.6l8.7-13c0.3,0.1,0.6,0.3,0.8,0.5
		C62.6,71.7,62.9,71.9,63.1,72.1z M51.4,73.6c2-2.9,5.6-4.1,8.8-3.1l-8.4,12.4C49.7,80.3,49.4,76.5,51.4,73.6z M54.4,85l0.8,0.6
		l-8.4,12.4l4.3,2.9c1.4,0.9,1.8,2.9,0.8,4.3c-0.5,0.7-1.2,1.1-2,1.3c-0.8,0.2-1.6,0-2.3-0.5l-12.4-8.4c-1.4-0.9-1.8-2.9-0.9-4.3
		c0.5-0.7,1.2-1.2,2-1.3c0.8-0.2,1.6,0,2.3,0.5l4.4,3l8.6-12.7l1,1l-8.5,12.5l1.8,1.1 M64.5,82.4c-2,2.9-5.5,4.1-8.7,3.2l8.3-12.4
		C66.2,75.7,66.4,79.5,64.5,82.4z M104.1,11.8l1,0.6l-41,60.8l-1-1"/>
	<path id="icon:3_4_" class="st0" d="M54.8,71.7l-24,1.4l3.6-14.4L54.8,71.7z M17.2,128l16.3-13.2l-13.2,0.8L17.2,128z M23.4,103.3
		l-2,8.1l17.6-1l10.7-8.7L23.4,103.3z M26.7,89.9l-2.3,9.3L55,97.4l12.1-9.8L26.7,89.9z M60.7,75.4l-30.9,1.8l-2.1,8.5l44.9-2.6
		l0.1-0.1L60.7,75.4z M51.5,61.2c0.1-1.4,2-34.3-16-44.2l-2,3.6c15.7,8.7,13.9,40,13.9,40.4L51.5,61.2z M109.3,56.2l1.5-3.8
		c-11.9-4.6-42.1,15.5-45.5,17.8l2.3,3.4C76.3,67.6,100.9,52.9,109.3,56.2z M58.8,66.4C58.9,66,69,34.2,82.3,19.9l-3-2.8
		c-14,15-24.1,46.7-24.5,48L58.8,66.4z M43.2,49.1l-3.1-8.9l-8.9,3.1l3.1,8.9L43.2,49.1z M80,78.1l-1.8-5.2l5.2-1.8l1.8,5.2L80,78.1
		z M73.2,56.1l-1.8-5.2l5.2-1.8l1.8,5.2L73.2,56.1z M56.6,34.3L54.7,29l5.2-1.8l1.8,5.2L56.6,34.3z M64.2,7.1l-1.8-5.2L67.6,0
		l1.8,5.2L64.2,7.1z M96.9,43.9l-1.8-5.2l5.2-1.8l1.8,5.2L96.9,43.9z"/>
	<path id="icon:2_4_" class="st0" d="M28.9,128C28,127.7,7.7,119.1,8,89c0.1-4.8,1.3-8.9,3.5-12c-0.4-0.6-0.8-1.3-1.1-2
		c-4.3-8.2-6.1-17-4.9-24.8c1-6.2,4.5-10.4,9.9-11.9C15,23.6,17.6,6.6,17.7,5.7l4.7,0.7c0,0.2-2.6,17-2.3,31.4
		c7.5,0.1,15.2,4.6,17.2,10.3c0.7,2.1,1.7,7.4-5.4,12.1c-2.1,1.4-4.7,1.6-7.3,0.5c-3.9-1.6-7-5.9-8.1-11.1c-0.4-2-0.7-4.1-0.9-6.3
		c-2.5,1-4.8,3.1-5.5,7.7C9,58.8,11.3,67,15,73.5c1.3-1,2.8-1.7,4.4-2.2c6.8-2.2,15.1-0.1,18.7,4.8c2.4,3.2,2.4,7.2-0.1,10.8
		c-3,4.3-7.6,5.6-12.6,3.5c-3.8-1.5-7.6-4.8-11-9.2c-1,1.9-1.6,4.4-1.7,7.8c-0.3,26.8,17.2,34.3,18,34.6L28.9,128z M17.5,77.5
		c3,4.2,6.5,7.3,9.6,8.5c3,1.2,5.3,0.6,7-1.9c1.3-1.9,1.4-3.7,0.2-5.3c-2.1-2.9-8.2-4.8-13.5-3.1C19.7,76.1,18.6,76.7,17.5,77.5z
		 M20.4,42.6c0.2,2.2,0.4,4.2,0.8,6.1c0.9,4.5,3.4,6.9,5.3,7.7c0.8,0.3,1.9,0.6,2.9-0.1c3.1-2.1,4.3-4.3,3.5-6.6
		C31.6,46,25.7,42.8,20.4,42.6z M58.6,10.4H47.7l8.8,6.4l-3.4,10.4l8.8-6.4l8.8,6.4l-3.4-10.4l8.8-6.4H65.3L62,0L58.6,10.4z
		 M108.9,27.5h-6l4.9,3.5l-1.9,5.7l4.9-3.5l4.9,3.5l-1.9-5.7l4.9-3.5h-6l-1.9-5.7L108.9,27.5z M56.7,43.8c-5.2,0-9.4,4.2-9.4,9.4
		s4.2,9.4,9.4,9.4s9.4-4.2,9.4-9.4S61.9,43.8,56.7,43.8z M67.7,72c-3.5,0-6.4,2.9-6.4,6.4s2.9,6.4,6.4,6.4s6.4-2.9,6.4-6.4
		S71.3,72,67.7,72z M116.5,51.6c-3.5,0-6.4,2.9-6.4,6.4s2.9,6.4,6.4,6.4s6.4-2.9,6.4-6.4S120,51.6,116.5,51.6z M80.2,124.6
		c-8.9-14.3-1.8-19.4,8.9-27.1c4.4-3.1,9.3-6.7,13.4-11.3c3.3-3.7,4.7-7.9,4.4-12.8c-1.1-13.9-17.6-27.3-18.3-27.9l-3,3.7
		c0.2,0.1,15.6,12.7,16.5,24.6c0.3,3.5-0.8,6.5-3.2,9.2c-3.8,4.2-8.3,7.4-12.7,10.6C75.8,101.2,65,109,76.2,127.1L80.2,124.6z"/>
	<path id="icon:1_4_" class="st0" d="M83.5,65.1C83.2,53.2,79,51.5,76.4,48c-2.4-3.3-4.8-34.6-5-37.4c-0.1-0.1,0-0.2,0-0.2
		s0,0.1,0,0.2c0.1,0.1,0.3,0,0.8-0.6c0.7-0.8-0.1-4.1-0.5-5.8h0.6V0H55.8v4.3h0.6c-0.5,1.7-1.3,5-0.5,5.8c0.6,0.6,0.8,0.7,0.8,0.6
		c0-0.1,0-0.2,0-0.2s0,0.1,0,0.2c-0.2,2.8-2.6,34-5,37.4c-2.6,3.5-6.8,5.1-7.1,17.1c-0.2,9.5-0.1,43.6,0,57.2c0,3.1,2.6,5.7,5.7,5.7
		h27.6c3.1,0,5.7-2.5,5.7-5.7C83.6,108.7,83.7,74.6,83.5,65.1z M79,108.3H49.1V70.2H79V108.3z"/>
</g>
<g id="row1" class="st2">
	<path id="icon:5" class="st3" d="M55.6,60.5l28.8,10.6c-2,1.9-4.6,3.4-7.4,4.1c-6.6,18.3-21.4,48.1-26.4,51.3
		c-1.5,1-3.8,1.5-5.6,1.5c-1.3,0-2.5-0.3-3.6-0.8c-6.1-2.9-9.8-13.5-11-31.6c-0.4-6.6-2.1-10.7-5.1-12c-4.2-1.9-10.5,1.9-12.6,3.5
		l-1.9-2.4c0.4-0.3,9-7,15.7-3.9c4.1,1.9,6.5,6.8,7,14.6c1,16.4,4.3,26.8,9.2,29c3.9,1.8,7.4-1.2,7.4-1.2s6.4-38.4,10.2-52.8
		C57.7,67.8,56,64.3,55.6,60.5z M72.6,41.4c-9,0-16.4,6.9-17.1,15.8l31.1,11.4c2-2.8,3.2-6.3,3.2-10C89.8,49.1,82.1,41.4,72.6,41.4z
		 M110,41.4h7.1c0,0-2-0.6-5.1-6.3c-3.1-5.7-5.1-12.4-5.1-12.4v23.8c-0.9-0.5-1.9-0.8-2.9-0.8c-3.4,0-6.1,2.7-6.1,6.1
		c0,3.3,2.7,6.1,6.1,6.1c3.3,0,6.1-2.7,6.1-6.1C110.1,51.4,110,41.4,110,41.4z M37.3,41.4h7.1c0,0-2-0.6-5.1-6.3
		c-3.1-5.7-5.1-12.4-5.1-12.4v23.8c-0.9-0.5-1.9-0.8-2.9-0.8c-3.4,0-6.1,2.7-6.1,6.1c0,3.3,2.7,6.1,6.1,6.1c3.3,0,6.1-2.7,6.1-6.1
		C37.4,51.4,37.3,41.4,37.3,41.4z M71.5,0c-6.1,0-11.1,5-11.1,11.1s5,11.1,11.1,11.1s11.1-5,11.1-11.1S77.6,0,71.5,0z"/>
	<path id="icon:4" class="st3" d="M55.2,82.5l5.7,8.9H54V128h-3.9V91.4h-6.9l5.7-8.9c-11.6-2-20.6-15.4-20.6-31.6
		C28.4,33.3,39,19,52.1,19c13.1,0,23.7,14.3,23.7,31.9C75.8,67.1,66.8,80.4,55.2,82.5z M99.6,68.4V9.3c0-2.5-1-4.9-2.7-6.6
		C95.2,1,92.9,0,90.3,0c-5.1,0-9.3,4.2-9.3,9.3v59.1c0,4,2.5,7.4,6,8.7l-5.8,9h6.9v36.6h3.9V86.1H99l-5.7-8.9
		C96.9,76,99.6,72.5,99.6,68.4z"/>
	<path id="icon:3" class="st3" d="M128,91.6v9.5H50.2v-6.7C35.4,93.9,16.3,91,7.7,80.2C1.7,72.7-1,63,0.3,53.7
		c1.2-8.9,5.9-16.5,13.1-21.5c6.2-4.3,13.7-6,21.1-4.7c7.4,1.3,13.9,5.4,18.3,11.6c3.6,5.1,5,11.3,3.9,17.4
		c-1.1,6.2-4.5,11.5-9.6,15.1c-8.9,6.2-23.5,3.9-29.5-4.7c-5.1-7.4-3.4-17.5,4-22.7c6.4-4.5,17.3-2.8,21.7,3.3
		c1.8,2.6,2.5,5.7,2,8.8c-0.5,3.1-2.2,5.8-4.8,7.6c-4.6,3.2-10.9,2.1-14.2-2.5l6.1-4.3c0.9,1.2,2.5,1.5,3.8,0.7c1.9-1.4,2.4-4.1,1-6
		c-1.9-2.7-8.3-3.6-11.2-1.5c-4,2.8-4.9,8.3-2.1,12.3c3.7,5.3,13.6,6.8,19.1,2.9c3.5-2.4,5.8-6.1,6.5-10.2c0.7-4.2-0.2-8.4-2.7-11.9
		c-3.2-4.6-7.9-7.6-13.4-8.5c-5.5-1-11,0.3-15.5,3.5c-5.5,3.8-9,9.7-10,16.5c-1,7.4,1,14.9,5.8,20.8c6.6,8.2,22.8,10.9,36.7,11.4
		v-7.8h52c0,0,2.2,7.4,11.6,11.2C119.4,92.6,128,91.6,128,91.6z"/>
	<path id="icon:2" class="st3" d="M114.9,0.1L108.4,0L83.7,38.8H13.1l42.4,37.5v6.2h3.4v37.6L44.6,128h36.4l-14.3-7.9V82.5H70v-6.2
		l16.9-14.9l25.5-22.6H90.9L114.9,0.1z M62.8,82.8l-0.3-0.2H63L62.8,82.8z M96.1,45l-10.4,9.2H39.8L29.4,45H96.1z"/>
	<path id="icon:1" class="st3" d="M8.3,92.3l53.4-24.9l-43.8,38.7L8.3,92.3z M115.1,27.2l-46.8,35l55.3-20.4L115.1,27.2z M8.1,35.7
		l52.4,26.9L3,51.7L8.1,35.7z M125,80.2L68.6,64.6l50,31.2L125,80.2z M63.6,2.4l1.5,58.8L47,5.6L63.6,2.4z M80.5,126.1L67.2,69.3
		L63.8,128L80.5,126.1z M90.3,29.2L66.2,62.4L79.8,24L90.3,29.2z M47.2,104.8l16.8-37.1L37.1,98.8L47.2,104.8z M92.9,100.3l-24.5-33
		L101,91.9L92.9,100.3z M33.5,36.5l30.4,27.1L42.3,28.7L33.5,36.5z M23.8,60.7l1.6,4.9h5.1l-4.2,3l1.6,4.9l-4.2-3l-4.2,3l1.6-4.9
		l-4.2-3h5.1L23.8,60.7z M43.1,118.6h-4.8l3.9,2.8l-1.5,4.5l3.9-2.8l3.9,2.8l-1.5-4.5l3.9-2.8h-4.8l-1.5-4.5L43.1,118.6z
		 M97.7,108.6h-4.5l3.6,2.6l-1.4,4.3l3.6-2.6l3.6,2.6l-1.4-4.3l3.6-2.6h-4.5l-1.4-4.3L97.7,108.6z M111.9,58.6h-5l4,2.9l-1.5,4.7
		l4-2.9l4,2.9l-1.5-4.7l4-2.9h-5l-1.5-4.7L111.9,58.6z M86.3,6.9h-6.9L85,11l-2.1,6.6l5.6-4.1l5.6,4.1L92,11l5.6-4.1h-6.9l-2.1-6.6
		L86.3,6.9z M18.9,8.1h-8.5l6.9,5l-2.6,8.1l6.9-5l6.9,5L25.7,13l6.9-5h-8.5L21.5,0L18.9,8.1z"/>
</g>
</svg>
